Adwaita++-Dark/mimetypes/16/application-mathematica.svg

<svg height="16" viewBox="0 0 16 16" width="16" xmlns="http://www.w3.org/2000/svg">
  <path d="m8.519385.001231c-1.495385 4.797784-2.196923 3.487731-5.396924 1.196831 1.901539 4.754711 1.605539 3.96831-2.153846 3.689562 3.252308 2.458888 2.673231 3.295131-.968615 5.122068 3.750154.02646 5.057846-.257211 3.389538 3.264366 3.416-1.737714 3.014154-1.754943 4.040615 2.725942 1.660924-4.501807 1.601232-4.040304 5.084309-1.879853-1.326769-3.646491-1.392001-3.744945 2.999999-2.819478-3.723077-3.141296-2.930461-3.365279.485539-5.544188-4.833846.175371-4.254769-.167988-2.88246-4.064303-3.954463 3.040381-3.649232 2.069379-4.598771-1.692178" fill="#e6ddff"/>
</svg>

<svg xmlns="http://www.w3.org/2000/svg" style="isolation:isolate" width="16" height="16" viewBox="0 0 16 16">
 <defs>
  <style id="current-color-scheme" type="text/css">
   .ColorScheme-Text { color:#E6DDFF; } .ColorScheme-Highlight { color:#5294e2; }
  </style>
  <linearGradient id="arrongin" x1="0%" x2="0%" y1="0%" y2="100%">
   <stop offset="0%" style="stop-color:#dd9b44"/>
   <stop offset="100%" style="stop-color:#ad6c16"/>
  </linearGradient>
  <linearGradient id="aurora" x1="0%" x2="0%" y1="0%" y2="100%">
   <stop offset="0%" style="stop-color:#09D4DF"/>
   <stop offset="100%" style="stop-color:#9269F4"/>
  </linearGradient>
  <linearGradient id="fitdance" x1="0%" x2="0%" y1="0%" y2="100%">
   <stop offset="0%" style="stop-color:#1AD6AB"/>
   <stop offset="100%" style="stop-color:#329DB6"/>
  </linearGradient>
  <linearGradient id="oomox" x1="0%" x2="0%" y1="0%" y2="100%">
   <stop offset="0%" style="stop-color:#efefe7"/>
   <stop offset="100%" style="stop-color:#8f8f8b"/>
  </linearGradient>
  <linearGradient id="rainblue" x1="0%" x2="0%" y1="0%" y2="100%">
   <stop offset="0%" style="stop-color:#00F260"/>
   <stop offset="100%" style="stop-color:#0575E6"/>
  </linearGradient>
  <linearGradient id="sunrise" x1="0%" x2="0%" y1="0%" y2="100%">
   <stop offset="0%" style="stop-color:#FF8501"/>
   <stop offset="100%" style="stop-color:#FFCB01"/>
  </linearGradient>
  <linearGradient id="telinkrin" x1="0%" x2="0%" y1="0%" y2="100%">
   <stop offset="0%" style="stop-color:#b2ced6"/>
   <stop offset="100%" style="stop-color:#6da5b7"/>
  </linearGradient>
  <linearGradient id="60spsycho" x1="0%" x2="0%" y1="0%" y2="100%">
   <stop offset="0%" style="stop-color:#df5940"/>
   <stop offset="25%" style="stop-color:#d8d15f"/>
   <stop offset="50%" style="stop-color:#e9882a"/>
   <stop offset="100%" style="stop-color:#279362"/>
  </linearGradient>
  <linearGradient id="90ssummer" x1="0%" x2="0%" y1="0%" y2="100%">
   <stop offset="0%" style="stop-color:#f618c7"/>
   <stop offset="20%" style="stop-color:#94ffab"/>
   <stop offset="50%" style="stop-color:#fbfd54"/>
   <stop offset="100%" style="stop-color:#0f83ae"/>
  </linearGradient>
  <linearGradient id="cyberneon" x1="0%" x2="0%" y1="0%" y2="100%">
   <stop offset="0" style="stop-color:#0abdc6"/>
   <stop offset="1" style="stop-color:#ea00d9"/>
  </linearGradient>
 </defs>
 <path style="fill:currentColor" class="ColorScheme-Text" d="M 8.519385 0.001231 C 7.024 4.799015 6.322462 3.488962 3.122461 1.198062 C 5.024 5.952773 4.728 5.166372 0.968615 4.887624 C 4.220923 7.346512 3.641846 8.182755 0 10.009692 C 3.750154 10.036152 5.057846 9.752481 3.389538 13.274058 C 6.805538 11.536344 6.403692 11.519115 7.430153 16 C 9.091077 11.498193 9.031385 11.959696 12.514462 14.120147 C 11.187693 10.473656 11.122461 10.375202 15.514461 11.300669 C 11.791384 8.159373 12.584 7.93539 16 5.756481 C 11.166154 5.931852 11.745231 5.588493 13.11754 1.692178 C 9.163077 4.732559 9.468308 3.761557 8.518769 0"/>
</svg>
